ru/_assets/wiki/svg/wysiwyg/grid.svg

<svg xmlns="http://www.w3.org/2000/svg" xmlns:xlink="http://www.w3.org/1999/xlink" width="16" height="16" class="yc-icon" fill="currentColor" stroke="none" aria-hidden="true"><svg viewBox="0 0 16 16" fill="none" xmlns="http://www.w3.org/2000/svg"><path d="M1.5 3.65625V12.5938C1.5 13.2793 2.0332 13.8125 2.71875 13.8125H13.2812C13.9414 13.8125 14.5 13.2793 14.5 12.5938V3.65625C14.5 2.99609 13.9414 2.4375 13.2812 2.4375H2.71875C2.0332 2.4375 1.5 2.99609 1.5 3.65625ZM13.4844 9.34375H6.50195V6.90625H13.4844V9.34375ZM13.4844 10.3594V12.4922C13.4844 12.6699 13.332 12.7969 13.1797 12.7969H6.50195V10.3594H13.4844ZM2.51562 6.90625H5.48633V9.34375H2.51562V6.90625ZM6.50195 5.89062V3.45312H13.1797C13.332 3.45312 13.4844 3.60547 13.4844 3.75781V5.89062H6.50195ZM5.48633 3.45312V5.89062H2.51562V3.75781C2.51562 3.60547 2.64258 3.45312 2.82031 3.45312H5.48633ZM2.51562 10.3594H5.48633V12.7969H2.82031C2.64258 12.7969 2.51562 12.6699 2.51562 12.4922V10.3594Z" fill="currentColor"></path></svg></svg>

<svg xmlns="http://www.w3.org/2000/svg" width="16" height="16" fill="currentColor" aria-hidden="true" class="yc-icon"><svg xmlns="http://www.w3.org/2000/svg" fill="none" viewBox="0 0 16 16"><path fill="currentColor" d="M1.5 3.656v8.938c0 .685.533 1.219 1.219 1.219H13.28c.66 0 1.219-.534 1.219-1.22V3.657c0-.66-.559-1.219-1.219-1.219H2.72c-.686 0-1.219.56-1.219 1.22Zm11.984 5.688H6.502V6.906h6.982v2.438Zm0 1.015v2.133a.309.309 0 0 1-.304.305H6.502v-2.438h6.982ZM2.516 6.906h2.97v2.438h-2.97V6.906Zm3.986-1.015V3.453h6.678c.152 0 .304.152.304.305V5.89H6.502ZM5.486 3.453v2.438h-2.97V3.758c0-.153.127-.305.304-.305h2.666Zm-2.97 6.906h2.97v2.438H2.82a.293.293 0 0 1-.304-.305V10.36Z"/></svg></svg>
